build/assets/images/svg/logo/b-logo.svg

<svg width="109" height="28" viewBox="0 0 109 28" fill="none" xmlns="http://www.w3.org/2000/svg">
<path d="M17.4736 2.76056C19.482 3.8926 21.0577 5.46284 22.2026 7.4713C23.3468 9.47975 23.9189 11.7499 23.9189 14.2818C23.9189 16.8143 23.3468 19.0838 22.2026 21.0923C21.0577 23.1007 19.482 24.671 17.4736 25.803C15.4651 26.9351 13.1949 27.5011 10.6631 27.5011C8.39899 27.5011 6.3595 27.1116 4.54641 26.3325C2.73272 25.5535 1.21725 24.4214 0 22.9364L3.76129 19.4307C5.56281 21.452 7.76542 22.4617 10.3709 22.4617C12.2455 22.4617 13.834 21.9139 15.1364 20.8184C16.4383 19.7229 17.2849 18.25 17.6744 16.3998H7.30347V11.8716H17.6014C17.1869 10.1188 16.3354 8.71897 15.0452 7.67214C13.7543 6.62592 12.1968 6.1019 10.3709 6.1019C7.76542 6.1019 5.56281 7.11221 3.76129 9.13284L0 5.62717C1.21725 4.14274 2.73272 3.0107 4.54641 2.23106C6.3595 1.45202 8.39899 1.0625 10.6631 1.0625C13.1949 1.0625 15.4651 1.62852 17.4736 2.76056Z" fill="#203686"/>
<path d="M38.4536 16.7643H34.3637V27.0622H28.4844V1.5H34.3637V11.8344H38.5997L45.3189 1.5H51.5633L43.2009 13.8429L51.819 27.0622H45.0998L38.4536 16.7643Z" fill="#203686"/>
<path d="M103.361 2.63204C105.028 3.38673 106.313 4.45791 107.213 5.84557C108.113 7.23323 108.564 8.87651 108.564 10.7754C108.564 12.6506 108.113 14.2872 107.213 15.687C106.313 17.0874 105.028 18.158 103.361 18.9005C101.693 19.6437 99.7273 20.0143 97.4632 20.0143H92.3142V27.0622H86.3984V1.5H97.4632C99.7273 1.5 101.693 1.87735 103.361 2.63204ZM101.188 14.0437C102.113 13.2769 102.576 12.1874 102.576 10.7754C102.576 9.33906 102.113 8.23746 101.188 7.47059C100.262 6.70373 98.9111 6.32029 97.1345 6.32029H92.3142V15.194H97.1345C98.9111 15.194 100.262 14.8106 101.188 14.0437Z" fill="#203686"/>
<path d="M62.4766 25.5522C62.4766 25.5522 67.9992 28.7511 74.6874 25.52C81.3755 22.2888 82.202 16.7284 82.482 14.3043C82.7614 11.8795 81.9239 8.19734 80.2581 7.27223C78.5929 6.34652 78.0646 7.8979 78.1145 8.49313C78.1644 9.08836 79.451 11.2478 79.9069 13.3603C80.3628 15.4722 80.0785 19.169 77.4962 22.1719C74.9138 25.1743 69.3023 27.9246 62.6245 25.2357L62.4766 25.5522Z" fill="#FFAB01"/>
<path d="M66.4258 25.383C66.4258 25.383 70.5772 26.3209 75.2788 22.8512C79.981 19.382 79.5708 12.7109 78.0784 12.3634C76.7766 12.0603 76.4528 13.1759 76.5922 14.0018C76.7309 14.8277 77.1771 16.6803 76.8082 18.1739C76.4382 19.6675 73.7493 25.4262 66.4258 25.383Z" fill="#FFAB01"/>
<path d="M69.1875 24.2405C69.1875 24.2405 71.317 24.0323 73.7911 21.683C76.2651 19.3338 75.2998 16.4872 74.1185 16.3485C72.9378 16.2103 72.978 17.2474 73.082 17.8664C73.1861 18.4853 73.8197 19.6569 72.7929 21.4341C71.7662 23.2113 70.0268 23.8461 69.1875 24.2405Z" fill="#FFAB01"/>
<path d="M57.0814 27.1835C57.0814 27.1835 57.6157 24.9219 58.6753 23.4003C58.6753 23.4003 60.6759 24.8732 63.8523 26.1805C63.8523 26.1805 63.5309 22.3352 58.1075 19.5179C58.1075 19.5179 56.5519 14.3915 60.5085 12.9837C62.4397 12.2966 65.3081 12.7263 68.4407 12.2211C67.3245 11.5115 65.6593 10.0964 65.3459 7.83358C63.7342 7.78245 57.4167 8.0119 56.5646 14.6763C56.5646 14.6763 56.183 7.25356 65.2947 7.14948C65.282 6.19577 65.5047 5.10816 66.0811 3.87996C66.0811 3.87996 63.9588 9.22306 69.5046 12.0118C72.4881 11.3173 75.6359 9.5998 78.396 5.16842C78.396 5.16842 73.163 -1.03893 65.4518 0.8618C57.7417 2.76435 51.7376 10.929 56.6188 20.2008C56.6188 20.2008 54.8666 23.7527 57.0814 27.1835ZM70.3822 5.79712C69.9032 5.37109 69.8698 4.64683 70.3092 4.18062C70.7486 3.71442 71.493 3.68277 71.9726 4.10941C72.4528 4.53606 72.485 5.26032 72.0456 5.72591C71.6074 6.19212 70.8624 6.22377 70.3822 5.79712Z" fill="#203686"/>
<path d="M59.5581 3.32842C59.5581 3.32842 56.3676 5.41783 54.9051 9.95815C54.9051 9.95815 53.6903 5.86577 55.6635 2.875L59.5581 3.32842Z" fill="#203686"/>
<path d="M66.3255 12.9375L62.277 13.0471L61.1973 15.1888C61.1979 15.1888 63.5143 15.8199 66.3255 12.9375Z" fill="#203686"/>
</svg>

<svg width="109" height="28" fill="none" xmlns="http://www.w3.org/2000/svg"><path d="M17.474 2.76a12.302 12.302 0 014.729 4.711c1.144 2.009 1.716 4.279 1.716 6.81 0 2.533-.572 4.803-1.716 6.811a12.302 12.302 0 01-4.73 4.711c-2.008 1.132-4.278 1.698-6.81 1.698-2.264 0-4.304-.39-6.117-1.169-1.813-.779-3.329-1.91-4.546-3.396l3.761-3.505c1.802 2.021 4.004 3.03 6.61 3.03 1.874 0 3.463-.547 4.765-1.643 1.302-1.095 2.149-2.568 2.538-4.418H7.304v-4.528H17.6c-.414-1.753-1.266-3.153-2.556-4.2-1.29-1.046-2.848-1.57-4.674-1.57-2.606 0-4.808 1.01-6.61 3.03L0 5.628c1.217-1.484 2.733-2.616 4.546-3.396 1.814-.78 3.854-1.169 6.117-1.169 2.532 0 4.802.566 6.81 1.698zm20.98 14.004h-4.09v10.298h-5.88V1.5h5.88v10.334H38.6L45.319 1.5h6.244l-8.362 12.343 8.618 13.22h-6.72l-6.645-10.299zm64.907-14.132c1.667.755 2.952 1.826 3.852 3.214.9 1.387 1.351 3.03 1.351 4.93 0 1.875-.451 3.511-1.351 4.911-.9 1.4-2.185 2.471-3.852 3.214-1.668.743-3.634 1.113-5.898 1.113h-5.149v7.048h-5.916V1.5h11.065c2.264 0 4.23.377 5.898 1.132zm-2.173 11.412c.925-.767 1.388-1.857 1.388-3.269 0-1.436-.463-2.538-1.388-3.304-.926-.767-2.277-1.15-4.053-1.15h-4.82v8.873h4.82c1.776 0 3.127-.383 4.053-1.15z" fill="#203686"/><path d="M62.477 25.552s5.522 3.2 12.21-.032c6.689-3.231 7.515-8.792 7.795-11.216.28-2.425-.558-6.107-2.224-7.032-1.665-.925-2.193.626-2.143 1.221.05.595 1.336 2.755 1.792 4.867.456 2.112.172 5.809-2.41 8.812-2.583 3.002-8.195 5.753-14.873 3.064l-.147.316z" fill="#FFAB01"/><path d="M66.426 25.383s4.151.938 8.853-2.532c4.702-3.469 4.292-10.14 2.8-10.488-1.302-.303-1.626.813-1.487 1.639.139.826.585 2.678.216 4.172-.37 1.494-3.059 7.252-10.382 7.209z" fill="#FFAB01"/><path d="M69.188 24.24s2.129-.208 4.603-2.557c2.474-2.35 1.509-5.196.328-5.334-1.181-.139-1.141.898-1.037 1.517.104.62.738 1.79-.29 3.568-1.026 1.777-2.765 2.412-3.605 2.806z" fill="#FFAB01"/><path d="M57.081 27.183s.535-2.261 1.594-3.783c0 0 2 1.473 5.177 2.78 0 0-.321-3.845-5.744-6.662 0 0-1.556-5.127 2.4-6.534 1.932-.687 4.8-.258 7.933-.763-1.117-.71-2.782-2.125-3.095-4.387-1.612-.052-7.93.178-8.781 6.842 0 0-.382-7.422 8.73-7.527-.013-.953.21-2.04.786-3.269 0 0-2.122 5.343 3.424 8.132 2.983-.695 6.13-2.412 8.891-6.844 0 0-5.233-6.207-12.944-4.306-7.71 1.902-13.714 10.067-8.833 19.339 0 0-1.752 3.552.462 6.982zM70.382 5.797a1.122 1.122 0 01-.073-1.616 1.201 1.201 0 011.664-.072c.48.427.512 1.151.073 1.617a1.201 1.201 0 01-1.664.071z" fill="#203686"/><path d="M59.558 3.328s-3.19 2.09-4.653 6.63c0 0-1.215-4.092.758-7.083l3.895.453zm6.768 9.61l-4.049.11-1.08 2.14s2.317.632 5.129-2.25z" fill="#203686"/></svg>
